src/assets/outline/TimerStart.svg

<svg width="24" height="24" viewBox="0 0 24 24"  xmlns="http://www.w3.org/2000/svg">
<path d="M12 13.75C11.59 13.75 11.25 13.41 11.25 13V8C11.25 7.59 11.59 7.25 12 7.25C12.41 7.25 12.75 7.59 12.75 8V13C12.75 13.41 12.41 13.75 12 13.75Z" />
<path d="M12 22.75C6.76 22.75 2.5 18.49 2.5 13.25C2.5 8.01 6.76 3.75 12 3.75C17.24 3.75 21.5 8.01 21.5 13.25C21.5 13.66 21.16 14 20.75 14C20.34 14 20 13.66 20 13.25C20 8.84 16.41 5.25 12 5.25C7.59 5.25 4 8.84 4 13.25C4 17.66 7.59 21.25 12 21.25C12.41 21.25 12.75 21.59 12.75 22C12.75 22.41 12.41 22.75 12 22.75Z" />
<path d="M15 2.75H9C8.59 2.75 8.25 2.41 8.25 2C8.25 1.59 8.59 1.25 9 1.25H15C15.41 1.25 15.75 1.59 15.75 2C15.75 2.41 15.41 2.75 15 2.75Z" />
<path d="M16.1499 22.0198C15.7999 22.0198 15.4799 21.9398 15.1899 21.7698C14.5299 21.3898 14.1499 20.6198 14.1499 19.6598V17.3498C14.1499 16.3898 14.5299 15.6198 15.1899 15.2398C15.8499 14.8598 16.6999 14.9198 17.5299 15.3898L19.5299 16.5498C20.3599 17.0298 20.8399 17.7398 20.8399 18.4998C20.8399 19.2598 20.3599 19.9698 19.5299 20.4498L17.5299 21.6098C17.0699 21.8798 16.5999 22.0198 16.1499 22.0198ZM16.1599 16.4798C16.0799 16.4798 15.9999 16.4998 15.9399 16.5298C15.7599 16.6298 15.6499 16.9398 15.6499 17.3398V19.6498C15.6499 20.0498 15.7599 20.3598 15.9399 20.4598C16.1199 20.5598 16.4399 20.5098 16.7799 20.3098L18.7799 19.1498C19.1299 18.9498 19.3399 18.6998 19.3399 18.4998C19.3399 18.2998 19.1299 18.0498 18.7799 17.8498L16.7799 16.6898C16.5499 16.5498 16.3299 16.4798 16.1599 16.4798Z" />
</svg>

<?xml version="1.0" encoding="UTF-8"?>
<svg width="24" height="24" viewBox="0 0 24 24" xmlns="http://www.w3.org/2000/svg">
 <path d="m12 13.75c-0.41 0-0.75-0.34-0.75-0.75v-5c0-0.41 0.34-0.75 0.75-0.75s0.75 0.34 0.75 0.75v5c0 0.41-0.34 0.75-0.75 0.75z"/>
 <path d="m12 22.75c-5.24 0-9.5-4.26-9.5-9.5s4.26-9.5 9.5-9.5 9.5 4.26 9.5 9.5c0 0.41-0.34 0.75-0.75 0.75s-0.75-0.34-0.75-0.75c0-4.41-3.59-8-8-8s-8 3.59-8 8 3.59 8 8 8c0.41 0 0.75 0.34 0.75 0.75s-0.34 0.75-0.75 0.75z"/>
 <path d="m15 2.75h-6c-0.41 0-0.75-0.34-0.75-0.75s0.34-0.75 0.75-0.75h6c0.41 0 0.75 0.34 0.75 0.75s-0.34 0.75-0.75 0.75z"/>
 <path d="m16.15 22.02c-0.35 0-0.67-0.08-0.96-0.25-0.66-0.38-1.04-1.15-1.04-2.11v-2.31c0-0.96 0.38-1.73 1.04-2.11s1.51-0.32 2.34 0.15l2 1.16c0.83 0.48 1.31 1.19 1.31 1.95s-0.48 1.47-1.31 1.95l-2 1.16c-0.46 0.27-0.93 0.41-1.38 0.41zm0.01-5.54c-0.08 0-0.16 0.02-0.22 0.05-0.18 0.1-0.29 0.41-0.29 0.81v2.31c0 0.4 0.11 0.71 0.29 0.81s0.5 0.05 0.84-0.15l2-1.16c0.35-0.2 0.56-0.45 0.56-0.65s-0.21-0.45-0.56-0.65l-2-1.16c-0.23-0.14-0.45-0.21-0.62-0.21z"/>
</svg>
